X:238
T:Fair Jenny's Jig
C:Peter Barnes
L:1/8
S:Colin Hume's website,  colinhume.com  - chords can also be printed below the stave.
Q:3/8=120
M:6/8
K:D
P:A
|: A | "D"f3 fgf | "A"ecA ecA | "G"Bcd "A"ecA | "G"Bcd "A7"efg |\
"D"f3 fgf | "A"ecA ecA | "G"Bcd "A"e2 A | "A7"ABc "D"d2 :|
P:B
|: A | "G"B3 B=cB | "G"GBB B=cB | "D"ADD dDD | "D"^cDD =cDD |\
"G"B3 B=cB | "G"GBB B=cB | "A"AEA AB^c | "D"dAF D2 :|

